!!!!SEGMENT: pl-wtm--iii-41-976--001-009_kurpinski-karol-kazimierz--wesele-w-ojcowie-allo-krakowiak.krn
!!!cenid: 18xx:4261
!!!COM: Kurpiński, Karol Kazimierz
!!!COM-rismID: pe30018952
!!!CDT: 1785/03/06-1857/09/18
!!!CNT: Polish
!!!GTL: Wesele w Ojcowie
!!!OTL: Allo Krakowiak
!!!OMV: 009
!!!PDT:
!!!AGN:
!!!SMS-siglum: PL-Wtm
!!!SMS-shelfmark: III.41.976
!!!SMS-shelfwork: 001-009 G
!!!SMS-variant:
!!!SMS-altvar:
!!!NIFC-rismSourceID: 1001130735
!!!NIFC-rismChildID: 1001130735
!!!NIFC-islandoraID: pl-wtm:23143
!!!URL-pdf-islandora: https://repozytorium.nifc.pl/islandora/object/pl-wtm:23143/datastream/PDF/view
!!!URL-scan: https://polish.musicsources.pl/pl/lokalizacje/galeria/druki-muzyczne/17811/8 @EN{Scan on Polish Music Sources Website} @PL{Skany w portalu Dziedzictwo Muzyki Polskiej w otwartym dostępie}
!!!IIIF:
!!!ONB-nifc: UWAGA: skany 8-9
!!!AIN: 2 piano
!!!key: G
**kern	**kern	**dynam
*part2	*part1	*part1
*staff2	*staff1	*
*I"[Piano]	*I"[Piano]	*
*I'pf	*I'pf	*
*ICklav	*ICklav	*
*Ipiano	*Ipiano	*
*clefF4	*clefG2	*
*k[f#]	*k[f#]	*
*G:	*G:	*
*M2/4	*M2/4	*
=1	=1	=1
8GG\L	(8d\L 8g 8b	.
8G\ 8B 8d	8b\J) 8dd	.
.	(16qcc/ 16qee	.
8G\ 8B 8d	8b\L) 8dd	.
8G\J 8B 8d	(16a#X\L 16cc#X	.
.	16b\JJ) 16dd	.
=2	=2	=2
8D\L	(8a\L 8cc	.
8A\ 8c 8d	8f#\) 8a	.
8A\ 8c 8d	8f#'\ 8a	.
8A\J 8c 8d	8f#'\J 8a	.
=3	=3	=3
8D\L	(8f#\L 8a	.
8F#\ 8c 8d	8a\J) 8cc	.
.	(8qb/ 8qdd	.
8F#\ 8c 8d	8a\L) 8cc	.
8F#\J 8c 8d	(16g#X\L 16b	.
.	16a\JJ) 16cc	.
=4	=4	=4
8G\L	(8b/L	.
8B\J 8d	8g/J)	.
4G\ 4B 4d	4g/	.
!!LO:LB:g=original	!	!
=5	=5	=5
8GG\L	(8d\L 8g 8b	.
8G\ 8B 8d	8b\J) 8dd	.
.	(8qcc/ 8qee	.
8G\ 8B 8d	8b\L) 8dd	.
8G\J 8B 8d	(16a#X\L 16cc#X	.
.	16b\JJ) 16dd	.
=6	=6	=6
8D\L	(8a\L 8cc	.
8A\ 8c 8d	8f#\) 8a	.
8A\ 8c 8d	8f#'\ 8a	.
8A\J 8c 8d	8f#'\J 8a	.
=7	=7	=7
8D\L	8a/L	.
8A\ 8c 8d	8cc/	.
8A\ 8c 8d	8a/	.
8A\J 8c 8d	8f#/J	.
=8	=8	=8
8G\ 8B 8d	8g/	.
8r	8r	.
4GG\ 4G	4B/ 4d 4g	.
=9	=9	=9
(8F#\L 8c	(8d\L 8a	.
8d\	8a\) 8cc	.
8D\	8a'\ 8cc	.
8d\J)	8a'\J 8cc	.
=10	=10	=10
(8G\L 8B	(8g\L 8b	.
8d\	8b\) 8dd	.
8D\	8b'\ 8dd	.
8d\J)	8b'\J 8dd	.
!!LO:LB:g=original	!	!
=11	=11	=11
(8F#\L 8c	(8d\L 8a	.
8d\	8a\) 8cc	.
8D\	8a'\ 8cc	.
8d\J)	8a'\J 8cc	.
=12	=12	=12
*	*^	*
(8G\L 8B	16b/LL	4g\	.
.	16cc/J	.	.
8d\J)	8dd/J	.	.
4G\ 4d	4b^\ 4dd	4ryy	.
*	*v	*v	*
=13	=13	=13
(8D\L	(8f#\L	.
8d\	8cc\J)	.
8F#\ 8c	8a'\L 8cc	.
8d\J)	8a'\J 8cc	.
=14	=14	=14
(8D\L	8g'\L 8b	.
8d\	8b'\J 8dd	.
8G\ 8B	(16cc\LL 16ee	.
.	16b\ 16dd	.
8d\J)	16a\ 16cc	.
.	16g\JJ) 16b	.
=15	=15	=15
*^	*	*
8r	2D\	(8f#/L 8a	.
8d/	.	8a/J 8cc	.
4c/	.	8f#/L 8a	.
.	.	8d/J) 8f#	.
=16	=16	=16	=16
N[8GG/L	4GG\	8c/L 8a	.
N[<8D/J	.	8B/J 8g	.
4GG\N] 4DN] 4G	8D\	4B/ 4g	.
.	8ryy	.	.
*v	*v	*	*
!!LO:PB:g=original	!	!
=17||	=17||	=17||
*k[]	*k[]	*
8C\L 8E 8G 8c	(16cc\LL	ff
.	16dd\	.
8C\ 8E 8G 8c	16ee\	.
.	16ff\JJ	.
8C\ 8E 8G 8c	8gg\L)	.
8C\J 8F#X 8A 8c	8ff#X^\J	.
=18	=18	=18
8C\L 8E 8G 8c	8gg\L	.
8C\J 8E 8G 8c	8ee\J	.
4C\ 4E 4G 4c	4cc^\	.
=19	=19	=19
8G\L 8B 8f	(16g\LL	p
.	16a\	.
8G\ 8B 8f	16b\	.
.	16cc\JJ	.
8G\ 8B 8f	16dd\LL	.
.	16ee\	.
8G\J 8B 8f	16dd\	.
.	16cc#X\JJ)	.
!	!	!
=20	=20	=20
8G\L 8B 8f	8dd\L	.
8G\J 8B 8f	8b\J	.
4G\ 4B 4f	4g^/	.
=21	=21	=21
8C\L 8E 8G 8c	(16cc\LL	ff
.	16dd\	.
8C\J 8E 8G 8c	16ee\	.
.	16ff\JJ	.
8C\L 8E 8G 8c	16gg\LL	.
.	16aa\	.
8C\J 8E 8G 8c	16gg\	.
.	16ff#X\JJ)	.
!!LO:LB:g=original	!	!
=22	=22	=22
8C\L 8E 8G 8c	8gg\L	.
8C\J 8E 8G 8c	8ee\J	.
4C\ 4E 4G 4c	4cc^\	.
=23	=23	=23
8G\L 8B 8f	(16b\LL	p
.	16cc\	.
8G\ 8B 8f	16dd\	.
.	16ee\JJ	.
8G\ 8B 8f	16ff\LL	.
.	16ee\	.
8G\J 8B 8f	16ff\	.
.	16dd\JJ)	.
=24	=24	=24
8c\L 8e	8cc\L	.
8C\J 8E 8G	8g\J 8ee	.
4C\ 4E 4G	4e/ 4cc	.
=25||	=25||	=25||
(8qGG/	(8qg/	.
(8B^\L)	(8g^\L) 8dd	p
16G\Jk)	16ff\Jk)	.
16r	16r	.
(8qGG/	(8qg/	.
(8B^\L)	(8g^\L) 8dd	.
16G\Jk)	16ff\Jk)	.
16r	16r	.
=26	=26	=26
*^	*	*
8r	2C\	(16ee\LL	.
.	.	16dd\	.
8E/L 8G 8c	.	16ee\	.
.	.	16ff\JJ	.
8E/ 8G 8c	.	16gg\LL	.
.	.	16ff#X\	.
8E/J 8G 8c	.	16gg\	.
.	.	16ee\JJ)	.
*v	*v	*	*
!!LO:LB:g=original	!	!
=27	=27	=27
(8qGG/	(8qg/	.
(8B^\L)	(8g^\L) 8dd	.
16G\Jk)	16ff\Jk)	.
16r	16r	.
(8qGG/	(8qg/	.
(8B^\L)	(8g^\L) 8dd	.
16G\Jk)	16ff\Jk)	.
16r	16r	.
=28	=28	=28
!	!	!
8C`\ 8c	8ee'\L	.
8GG^\L 8G	8gg^\J 8eee	.
8EE^\ 8E	4ee^^\ 4ccc	.
8CC^\J 8C	.	.
=29	=29	=29
8C\L 8E 8G 8c	(16cc\LL	ff
.	16dd\	.
8C\ 8E 8G 8c	16ee\	.
.	16ff\JJ	.
8C\ 8E 8G 8c	16gg\LL	.
.	16aa\	.
8C\J 8E 8G 8c	16gg\	.
.	16ff#X\JJ)	.
=30	=30	=30
8C\L 8E 8G 8c	8gg\L	.
8C\J 8E 8G 8c	8ee\J	.
4C\ 4E 4G 4c	4cc^\	.
=31	=31	=31
8G\L 8B 8f	(16b\LL	p
.	16cc\	.
8G\ 8B 8f	16dd\	.
.	16ee\JJ	.
8G\ 8B 8f	16ff\LL	.
.	16ee\	.
8G\J 8B 8f	16ff\	.
.	16dd\JJ)	.
=32	=32	=32
8c\L 8e	8cc\L	.
8C\J 8E 8G	8g\J 8ee	.
4C\ 4E 4G	4e\ 4cc	.
==	==	==
*-	*-	*-
!!!system-decoration: {(s1,s2)}
!!!RDF**kern: > = above
!!!RDF**kern: < = below
!!!RDF**kern: N = linked
!!!ENC: Berenika Jozajtis
!!!END: 2022-11-26
!!!ENC: Natalia Wrzos
!!!END: 2022-12-06
!!!YEC: Copyright 2022 Narodowy Instytut Fryderyka Chopina (https://polishscores.org)
!!!YEM: License CC-BY-4.0 (https://creativecommons.org/licenses/by/4.0)
